assets/img/icon-instagram.svg

<svg xmlns="http://www.w3.org/2000/svg" viewBox="0 0 25.5 25.5"><path fill="#005ea5" d="M0 0h25.5v25.5H0z"/><path d="M18.8 4.6H6c-1.1 0-2 .9-2 2v13.1c0 1.1.9 2 2 2h13.1c1.1 0 2-.9 2-2V6.6c-.1-1.1-1.3-2-2.3-2zm-6.3 5.3c1.7 0 3.1 1.4 3.1 3.1 0 1.7-1.4 3.1-3.1 3.1-1.7 0-3.1-1.4-3.1-3.1 0-1.7 1.4-3.1 3.1-3.1zm6.3 8.3c0 .6-.5 1.1-1.1 1.1H7.4c-.6 0-1.1-.5-1.1-1.1v-6.5h1.3c-.1.5-.2.9-.2 1.4 0 2.8 2.3 5.1 5.1 5.1s5.1-2.3 5.1-5.1c0-.5-.1-1-.2-1.4h1.3v6.5h.1zm0-10.8v1.7c0 .3-.3.5-.6.6h-1.7c-.3 0-.6-.2-.6-.6V7.4c0-.3.3-.6.6-.6h1.7c.3 0 .6.3.6.6z" fill="#fff"/></svg>

<?xml version="1.0" encoding="utf-8"?>
<!-- Generator: Adobe Illustrator 21.1.0, SVG Export Plug-In . SVG Version: 6.00 Build 0)  -->
<svg version="1.1" id="Layer_1" xmlns="http://www.w3.org/2000/svg" xmlns:xlink="http://www.w3.org/1999/xlink" x="0px" y="0px"
	 viewBox="0 0 25.5 25.5" style="enable-background:new 0 0 25.5 25.5;" xml:space="preserve">
<style type="text/css">
	.st0{fill:#005EA5;}
	.st1{fill:#FFFFFF;}
</style>
<rect class="st0" width="25.5" height="25.5"/>
<g id="instagram">
	<path id="Camera" class="st1" d="M18.8,4.6c0,0-12.8,0-12.8,0c-1.1,0-2,0.9-2,2l0,0c0,0,0,13.1,0,13.1c0,1.1,0.9,2,2,2
		c0,0,13.1,0,13.1,0c1.1,0,2-0.9,2-2c0,0,0-13.1,0-13.1C21,5.5,19.8,4.6,18.8,4.6z M12.5,9.9c1.7,0,3.1,1.4,3.1,3.1
		c0,1.7-1.4,3.1-3.1,3.1c-1.7,0-3.1-1.4-3.1-3.1C9.4,11.3,10.8,9.9,12.5,9.9z M18.8,18.2c0,0.6-0.5,1.1-1.1,1.1H7.4
		c-0.6,0-1.1-0.5-1.1-1.1v-6.5h1.3c-0.1,0.5-0.2,0.9-0.2,1.4c0,2.8,2.3,5.1,5.1,5.1c2.8,0,5.1-2.3,5.1-5.1c0-0.5-0.1-1-0.2-1.4h1.3
		V18.2C18.8,18.2,18.8,18.2,18.8,18.2z M18.8,7.4v1.7h0c0,0.3-0.3,0.5-0.6,0.6v0h-1.7c-0.3,0-0.6-0.2-0.6-0.6h0V7.4h0c0,0,0,0,0,0
		c0-0.3,0.3-0.6,0.6-0.6h1.7v0C18.5,6.8,18.8,7.1,18.8,7.4C18.8,7.4,18.8,7.4,18.8,7.4L18.8,7.4z"/>
</g>
</svg>
